components/Common/Svg/svgs/brain.svg

<svg width="40" height="40" viewBox="0 0 40 40" fill="none" xmlns="http://www.w3.org/2000/svg">
<path fill-rule="evenodd" clip-rule="evenodd" d="M12.5547 7.46337C11.9852 8.02654 11.6868 8.62845 11.6562 9.18274C11.6323 9.61725 11.4313 9.99165 11.1772 10.2568C10.9231 10.522 10.5596 10.737 10.1313 10.7823C9.61868 10.8366 9.06213 11.137 8.53355 11.6937C8.00914 12.2459 7.56464 12.9989 7.28124 13.8234C6.73646 15.4083 6.87478 16.9025 7.66196 17.7493H9.89933C11.905 17.7493 13.566 19.2252 13.8554 21.1502C14.8149 21.4995 15.5001 22.4197 15.5001 23.5C15.5001 24.8807 14.3808 26 13.0001 26C11.6193 26 10.5001 24.8807 10.5001 23.5C10.5001 22.4635 11.1309 21.5743 12.0296 21.1954C11.7837 20.2484 10.9232 19.5493 9.89933 19.5493H7.43871C6.65073 19.8001 6.10355 20.3741 5.76829 21.1854C5.4095 22.0536 5.31247 23.1657 5.47894 24.2877C5.6453 25.4089 6.06276 26.4575 6.64186 27.2022C7.21598 27.9405 7.89348 28.3212 8.62596 28.3176C9.4676 28.3135 10.2366 29.012 10.2482 29.8975C10.2702 31.57 11.7609 33.4807 13.7411 34.2619C14.6968 34.6389 15.6903 34.7165 16.5967 34.4137C17.4719 34.1213 18.3632 33.4421 19.1001 32.1251V27.8681V15.0645H16.9361C16.6802 16.1733 15.6867 17 14.5001 17C13.1193 17 12.0001 15.8807 12.0001 14.5C12.0001 13.1193 13.1193 12 14.5001 12C15.4314 12 16.2437 12.5092 16.6739 13.2645H19.1001V7.20778C18.1611 5.88953 16.4672 5.61659 14.7613 6.16249C13.903 6.43715 13.1204 6.90394 12.5547 7.46337ZM17.1671 36.1209C18.2229 35.7682 19.1904 35.0804 20.0001 34.0273C20.8097 35.0804 21.7772 35.7682 22.833 36.1209C24.2175 36.5835 25.6525 36.4362 26.9196 35.9363C29.3237 34.9879 31.4113 32.6337 31.5453 30.1144C32.8047 30.0632 33.8411 29.4127 34.6031 28.523C35.3941 27.5994 35.9292 26.3806 36.1973 25.1287C36.4658 23.8745 36.4801 22.5229 36.1652 21.3091C35.8594 20.1302 35.2247 19.0244 34.1515 18.3265C35.1802 16.6547 34.9506 14.4213 34.2038 12.6738C33.4615 10.9367 32.0139 9.24158 30.1357 9.00136C30.0502 7.90646 29.4739 6.93781 28.7111 6.18348C27.9254 5.40655 26.8897 4.80088 25.7874 4.44813C23.9055 3.84593 21.5868 3.93375 20.0001 5.49591C18.4133 3.93375 16.0946 3.84593 14.2127 4.44813C13.1104 4.80088 12.0747 5.40655 11.2891 6.18348C10.5262 6.93782 9.94987 7.90647 9.86445 9.00138C8.83015 9.13404 7.93069 9.71451 7.22829 10.4542C6.50428 11.2166 5.9353 12.2017 5.579 13.2383C5.02821 14.8407 4.91975 16.8266 5.84584 18.3279C5.03579 18.8559 4.46408 19.6284 4.10473 20.4979C3.59385 21.7342 3.49614 23.1885 3.69843 24.5518C3.90084 25.916 4.41566 27.2716 5.22092 28.3072C5.99724 29.3055 7.09367 30.0592 8.45479 30.1144C8.5888 32.6337 10.6764 34.9879 13.0805 35.9363C14.3476 36.4362 15.7826 36.5835 17.1671 36.1209ZM23.4034 34.4137C22.5282 34.1213 21.6369 33.4421 20.9001 32.1251V28.7681H23.0001C25.154 28.7681 26.9001 27.022 26.9001 24.8681V21.3331C27.8361 20.9718 28.5001 20.0634 28.5001 19C28.5001 17.6193 27.3808 16.5 26.0001 16.5C24.6193 16.5 23.5001 17.6193 23.5001 19C23.5001 20.0634 24.164 20.9718 25.1001 21.3331V24.8681C25.1001 26.0279 24.1599 26.9681 23.0001 26.9681H20.9001V14.1645V7.20778C21.839 5.88953 23.5329 5.61659 25.2388 6.16249C26.0971 6.43715 26.8797 6.90394 27.4454 7.46337C28.0149 8.02654 28.3133 8.62845 28.3439 9.18274C28.3678 9.61725 28.5688 9.99165 28.8229 10.2568C29.077 10.522 29.4405 10.737 29.8688 10.7823C30.823 10.8834 31.8987 11.8602 32.5486 13.3811C33.19 14.8821 33.2181 16.4659 32.584 17.4376C32.3144 17.8507 32.2814 18.3313 32.3671 18.7216C32.4529 19.1119 32.6856 19.5384 33.1122 19.799C33.7423 20.1839 34.1894 20.8611 34.4229 21.761C34.6567 22.6624 34.6566 23.7265 34.4371 24.7519C34.2171 25.7796 33.7906 26.7045 33.236 27.3521C32.6883 27.9916 32.0575 28.321 31.3742 28.3176C30.5325 28.3135 29.7635 29.012 29.7519 29.8975C29.7299 31.57 28.2392 33.4807 26.259 34.2619C25.3033 34.6389 24.3098 34.7165 23.4034 34.4137ZM15.2001 14.5C15.2001 14.8866 14.8867 15.2 14.5001 15.2C14.1135 15.2 13.8001 14.8866 13.8001 14.5C13.8001 14.1134 14.1135 13.8 14.5001 13.8C14.8867 13.8 15.2001 14.1134 15.2001 14.5ZM13.0001 24.2C13.3867 24.2 13.7001 23.8866 13.7001 23.5C13.7001 23.1134 13.3867 22.8 13.0001 22.8C12.6135 22.8 12.3001 23.1134 12.3001 23.5C12.3001 23.8866 12.6135 24.2 13.0001 24.2ZM26.7001 19C26.7001 19.3866 26.3867 19.7 26.0001 19.7C25.6135 19.7 25.3001 19.3866 25.3001 19C25.3001 18.6134 25.6135 18.3 26.0001 18.3C26.3867 18.3 26.7001 18.6134 26.7001 19Z" fill="#161616"/>
</svg>

<svg width="40" height="40" viewBox="0 0 40 40" fill="none" xmlns="http://www.w3.org/2000/svg"><path fill-rule="evenodd" clip-rule="evenodd" d="M12.555 7.463c-.57.564-.868 1.165-.899 1.72a1.701 1.701 0 0 1-.479 1.074c-.254.265-.617.48-1.046.525-.512.055-1.069.355-1.597.912-.525.552-.97 1.305-1.253 2.13-.545 1.584-.406 3.079.381 3.925h2.237a4.002 4.002 0 0 1 3.956 3.401 2.5 2.5 0 1 1-1.825.045A2.202 2.202 0 0 0 9.9 19.55H7.438c-.788.251-1.335.825-1.67 1.636-.36.869-.457 1.98-.29 3.103.166 1.12.584 2.17 1.163 2.914.574.738 1.251 1.12 1.984 1.116.842-.005 1.61.694 1.622 1.58.022 1.672 1.513 3.583 3.493 4.364.956.377 1.95.455 2.856.152.875-.293 1.766-.972 2.503-2.289V15.065h-2.164a2.501 2.501 0 1 1-.262-1.8H19.1V7.207c-.939-1.318-2.633-1.591-4.339-1.046-.858.275-1.64.742-2.206 1.301Zm4.612 28.658c1.056-.353 2.023-1.04 2.833-2.094.81 1.053 1.777 1.741 2.833 2.094 1.385.462 2.82.315 4.087-.185 2.404-.948 4.491-3.302 4.625-5.822 1.26-.05 2.296-.701 3.058-1.591.791-.924 1.326-2.142 1.594-3.394.269-1.255.283-2.606-.032-3.82-.306-1.179-.94-2.285-2.014-2.983 1.03-1.671.8-3.905.053-5.652-.742-1.737-2.19-3.432-4.068-3.673-.086-1.095-.662-2.063-1.425-2.818-.786-.776-1.821-1.382-2.924-1.735-1.881-.602-4.2-.514-5.787 1.048-1.587-1.562-3.905-1.65-5.787-1.048-1.103.353-2.138.959-2.924 1.735-.763.755-1.34 1.723-1.425 2.818-1.034.133-1.933.714-2.636 1.453-.724.763-1.293 1.748-1.649 2.784-.55 1.603-.66 3.589.267 5.09-.81.528-1.382 1.3-1.741 2.17-.511 1.236-.609 2.69-.407 4.054.203 1.364.718 2.72 1.523 3.755.776.998 1.873 1.752 3.234 1.807.134 2.52 2.221 4.874 4.626 5.822 1.267.5 2.702.648 4.086.185Zm6.236-1.707c-.875-.293-1.766-.972-2.503-2.289v-3.357H23a3.9 3.9 0 0 0 3.9-3.9v-3.535a2.501 2.501 0 1 0-1.8 0v3.535a2.1 2.1 0 0 1-2.1 2.1h-2.1V7.208c.939-1.318 2.633-1.591 4.339-1.046.858.275 1.64.742 2.206 1.301.57.564.868 1.165.899 1.72.024.434.225.809.479 1.074s.617.48 1.046.525c.954.101 2.03 1.078 2.68 2.6.641 1.5.67 3.084.035 4.056-.27.413-.303.893-.217 1.284.086.39.319.816.745 1.077.63.385 1.077 1.062 1.31 1.962.235.901.235 1.966.015 2.99-.22 1.029-.646 1.953-1.201 2.601-.548.64-1.178.969-1.862.966-.841-.005-1.61.694-1.622 1.58-.022 1.672-1.513 3.583-3.493 4.364-.956.377-1.95.455-2.856.152ZM15.2 14.5a.7.7 0 1 1-1.4 0 .7.7 0 0 1 1.4 0ZM13 24.2a.7.7 0 1 0 0-1.4.7.7 0 0 0 0 1.4ZM26.7 19a.7.7 0 1 1-1.4 0 .7.7 0 0 1 1.4 0Z" fill="#161616"/></svg>
